packages/icons/svg/Universe_Kitchen2_24px.svg

<svg xmlns="http://www.w3.org/2000/svg" viewBox="0 0 24 24"><path d="M17.5 12h-11a.5.5 0 00-.5.5v6a.5.5 0 00.5.5h11a.5.5 0 00.5-.5v-6a.5.5 0 00-.5-.5zm-.5 6H7v-5h10zM17.5 10h-11a.5.5 0 000 1h11a.5.5 0 000-1zM10.5 6h3a.5.5 0 000-1h-3a.5.5 0 000 1zM8.15 5.85A.5.5 0 009 5.5a.43.43 0 000-.19.53.53 0 00-.31-.31.46.46 0 00-.38 0 .53.53 0 00-.31.31.43.43 0 000 .19.41.41 0 000 .19.36.36 0 00.15.16zM6.15 5.85a.36.36 0 00.16.15.41.41 0 00.19 0 .47.47 0 00.35-.15.36.36 0 00.15-.16.41.41 0 000-.19.43.43 0 000-.19.53.53 0 00-.31-.31.46.46 0 00-.38 0 .36.36 0 00-.16.11.47.47 0 00-.15.39.41.41 0 000 .19.36.36 0 00.15.16zM15.31 6a.41.41 0 00.19 0 .47.47 0 00.35-.15.51.51 0 00.15-.35.65.65 0 000-.19.36.36 0 00-.11-.16.48.48 0 00-.58-.15.53.53 0 00-.27.27.43.43 0 000 .19.47.47 0 00.15.35.36.36 0 00.12.19zM17.15 5.85a.36.36 0 00.16.11.47.47 0 00.38 0 .36.36 0 00.16-.11.47.47 0 00.15-.35.43.43 0 000-.19.53.53 0 00-.31-.31.5.5 0 00-.38 0 .53.53 0 00-.27.27.43.43 0 000 .19.41.41 0 000 .19.36.36 0 00.11.2z"/><path d="M21 2H3a1 1 0 00-1 1v18a1 1 0 001 1h18a1 1 0 001-1V3a1 1 0 00-1-1zm-1 2v3H4V4zM4 20V9h16v11z"/></svg>

<svg xmlns="http://www.w3.org/2000/svg" viewBox="0 0 24 24"><defs></defs><g id="Calque_5" ><path  d="M17.5,12H6.5a.5.5,0,0,0-.5.5v6a.5.5,0,0,0,.5.5h11a.5.5,0,0,0,.5-.5v-6A.5.5,0,0,0,17.5,12ZM17,18H7V13H17Z"/><path  d="M17.5,10H6.5a.5.5,0,0,0,0,1h11a.5.5,0,0,0,0-1Z"/><path  d="M10.5,6h3a.5.5,0,0,0,0-1h-3a.5.5,0,0,0,0,1Z"/><path  d="M8.15,5.85A.5.5,0,0,0,9,5.5a.43.43,0,0,0,0-.19A.53.53,0,0,0,8.69,5a.46.46,0,0,0-.38,0A.53.53,0,0,0,8,5.31.43.43,0,0,0,8,5.5a.41.41,0,0,0,0,.19A.36.36,0,0,0,8.15,5.85Z"/><path  d="M6.15,5.85A.36.36,0,0,0,6.31,6,.41.41,0,0,0,6.5,6a.47.47,0,0,0,.35-.15A.36.36,0,0,0,7,5.69.41.41,0,0,0,7,5.5a.43.43,0,0,0,0-.19A.53.53,0,0,0,6.69,5a.46.46,0,0,0-.38,0,.36.36,0,0,0-.16.11A.47.47,0,0,0,6,5.5a.41.41,0,0,0,0,.19A.36.36,0,0,0,6.15,5.85Z"/><path  d="M15.31,6a.41.41,0,0,0,.19,0,.47.47,0,0,0,.35-.15A.51.51,0,0,0,16,5.5a.65.65,0,0,0,0-.19.36.36,0,0,0-.11-.16A.48.48,0,0,0,15.31,5a.53.53,0,0,0-.27.27.43.43,0,0,0,0,.19.47.47,0,0,0,.15.35A.36.36,0,0,0,15.31,6Z"/><path  d="M17.15,5.85a.36.36,0,0,0,.16.11.47.47,0,0,0,.38,0,.36.36,0,0,0,.16-.11A.47.47,0,0,0,18,5.5a.43.43,0,0,0,0-.19A.53.53,0,0,0,17.69,5a.5.5,0,0,0-.38,0,.53.53,0,0,0-.27.27.43.43,0,0,0,0,.19.41.41,0,0,0,0,.19A.36.36,0,0,0,17.15,5.85Z"/><path  d="M21,2H3A1,1,0,0,0,2,3V21a1,1,0,0,0,1,1H21a1,1,0,0,0,1-1V3A1,1,0,0,0,21,2ZM20,4V7H4V4ZM4,20V9H20V20Z"/></g></svg>
